Newaita/actions/32/transform-crop-and-resize.svg

<svg height="32" viewBox="0 0 32 32" width="32" xmlns="http://www.w3.org/2000/svg"><g fill="#424242"><path d="m9.921875 24.066406v-20.507812c0-.367188-.296875-.664063-.660156-.664063h-1.324219c-.363281 0-.660156.296875-.660156.664063v20.507812c0 .363282.296875.660156.660156.660156h1.324219c.363281 0 .660156-.296874.660156-.660156zm0 0"/><path d="m8.601562 24.726562h19.84375c.367188 0 .660157-.296874.660157-.660156v-1.324218c0-.367188-.292969-.660157-.660157-.660157h-19.84375c-.367187 0-.664062.292969-.664062.660157v1.324218c0 .363282.296875.660156.664062.660156zm0 0"/><path d="m21.832031 8.1875v20.507812c0 .367188.292969.660157.660157.660157h1.324218c.363282 0 .660156-.292969.660156-.660157v-20.507812c0-.363281-.296874-.660156-.660156-.660156h-1.324218c-.367188 0-.660157.296875-.660157.660156zm0 0"/><path d="m23.152344 7.527344h-19.84375c-.367188 0-.664063.296875-.664063.660156v1.324219c0 .363281.296875.660156.664063.660156h19.84375c.367187 0 .664062-.296875.664062-.660156v-1.324219c0-.363281-.296875-.660156-.664062-.660156zm0 0"/><path d="m12.570312 16.789062h6.613282l-3.308594 3.304688zm0 0"/><path d="m12.570312 15.464844h6.613282l-3.308594-3.308594zm0 0"/></g></svg>

<?xml version="1.0" encoding="UTF-8"?>
<svg xmlns="http://www.w3.org/2000/svg" xmlns:xlink="http://www.w3.org/1999/xlink" width="32px" height="32px" viewBox="0 0 32 32" version="1.1">
<g id="surface1">
<path style=" stroke:none;fill-rule:nonzero;fill:rgb(25.882354%,25.882354%,25.882354%);fill-opacity:1;" d="M 9.921875 24.066406 L 9.921875 3.558594 C 9.921875 3.191406 9.625 2.894531 9.261719 2.894531 L 7.9375 2.894531 C 7.574219 2.894531 7.277344 3.191406 7.277344 3.558594 L 7.277344 24.066406 C 7.277344 24.429688 7.574219 24.726562 7.9375 24.726562 L 9.261719 24.726562 C 9.625 24.726562 9.921875 24.429688 9.921875 24.066406 Z M 9.921875 24.066406 "/>
<path style=" stroke:none;fill-rule:nonzero;fill:rgb(25.882354%,25.882354%,25.882354%);fill-opacity:1;" d="M 8.601562 24.726562 L 28.445312 24.726562 C 28.8125 24.726562 29.105469 24.429688 29.105469 24.066406 L 29.105469 22.742188 C 29.105469 22.375 28.8125 22.082031 28.445312 22.082031 L 8.601562 22.082031 C 8.234375 22.082031 7.9375 22.375 7.9375 22.742188 L 7.9375 24.066406 C 7.9375 24.429688 8.234375 24.726562 8.601562 24.726562 Z M 8.601562 24.726562 "/>
<path style=" stroke:none;fill-rule:nonzero;fill:rgb(25.882354%,25.882354%,25.882354%);fill-opacity:1;" d="M 21.832031 8.1875 L 21.832031 28.695312 C 21.832031 29.0625 22.125 29.355469 22.492188 29.355469 L 23.816406 29.355469 C 24.179688 29.355469 24.476562 29.0625 24.476562 28.695312 L 24.476562 8.1875 C 24.476562 7.824219 24.179688 7.527344 23.816406 7.527344 L 22.492188 7.527344 C 22.125 7.527344 21.832031 7.824219 21.832031 8.1875 Z M 21.832031 8.1875 "/>
<path style=" stroke:none;fill-rule:nonzero;fill:rgb(25.882354%,25.882354%,25.882354%);fill-opacity:1;" d="M 23.152344 7.527344 L 3.308594 7.527344 C 2.941406 7.527344 2.644531 7.824219 2.644531 8.1875 L 2.644531 9.511719 C 2.644531 9.875 2.941406 10.171875 3.308594 10.171875 L 23.152344 10.171875 C 23.519531 10.171875 23.816406 9.875 23.816406 9.511719 L 23.816406 8.1875 C 23.816406 7.824219 23.519531 7.527344 23.152344 7.527344 Z M 23.152344 7.527344 "/>
<path style=" stroke:none;fill-rule:nonzero;fill:rgb(25.882354%,25.882354%,25.882354%);fill-opacity:1;" d="M 12.570312 16.789062 L 19.183594 16.789062 L 15.875 20.09375 Z M 12.570312 16.789062 "/>
<path style=" stroke:none;fill-rule:nonzero;fill:rgb(25.882354%,25.882354%,25.882354%);fill-opacity:1;" d="M 12.570312 15.464844 L 19.183594 15.464844 L 15.875 12.15625 Z M 12.570312 15.464844 "/>
</g>
</svg>
